Yaru++/actions/16/transform-shear-left.svg

<svg viewBox="0 0 24 24" xmlns="http://www.w3.org/2000/svg"><path d="m4 4v9 1h1 2v-1h-2v-8h11v4h1v-5h-1-11zm4 6 .0996094 1 .9003906 9h1 9 1l-.099609-1-.900391-9h-1-9zm1.0996094 1h8.9999996l.800782 8h-9.0000004z" fill="#808080"/></svg>

<svg xmlns="http://www.w3.org/2000/svg" viewBox="0 0 24 24">
 <defs>
  <style id="current-color-scheme" type="text/css">
   .ColorScheme-Text { color:#808080; }
  </style>
 </defs>
 <path fill="#808080" class="ColorScheme-Text" d="M 4 4 L 4 13 L 4 14 L 5 14 L 7 14 L 7 13 L 5 13 L 5 5 L 16 5 L 16 9 L 17 9 L 17 4 L 16 4 L 5 4 L 4 4 z M 8 10 L 8.0996094 11 L 9 20 L 10 20 L 19 20 L 20 20 L 19.900391 19 L 19 10 L 18 10 L 9 10 L 8 10 z M 9.0996094 11 L 18.099609 11 L 18.900391 19 L 9.9003906 19 L 9.0996094 11 z"/>
</svg>
